wp-content/plugins/wp-rocket/assets/img/warning.svg

<svg fill="none" height="48" viewBox="0 0 63 48" width="63" xmlns="http://www.w3.org/2000/svg" xmlns:xlink="http://www.w3.org/1999/xlink"><clipPath id="a"><path d="m0 0h63v48h-63z"/></clipPath><g clip-path="url(#a)"><path d="m55.3556 46.0004h-33.3508c-3.5892 0-5.8048-3.9169-3.9559-6.9931l16.7826-27.9216c1.7993-2.9935 6.1428-2.98121 7.925.0224l16.5683 27.9216c1.8256 3.0766-.3917 6.9707-3.9692 6.9707z" fill="#fff"/><path d="m46.0883 46h-37.8916c-3.59725 0-5.81172-3.9328-3.94641-7.0086l19.06751-31.44197c1.8028-2.9727 6.1205-2.96044 7.9064.02245l18.824 31.44192c1.8418 3.0764-.3744 6.9862-3.9599 6.9862z" fill="#f56f46"/><path clip-rule="evenodd" d="m22.0053 45.9997h24.0831c3.5855 0 5.8017-3.9099 3.9599-6.9862l-15.9699-26.6746-16.0289 26.6677c-1.849 3.0762.3667 6.9931 3.9558 6.9931z" fill="#172153" fill-rule="evenodd"/><g fill="#fff"><rect height="4.13549" rx="2.06775" transform="matrix(.00000013 -1 -1 -.00000013 28.3662 32.6211)" width="15.4682"/><rect height="4.13549" rx="2.06775" transform="matrix(.00000013 -1 -1 -.00000013 28.3662 38.8672)" width="4.15592"/></g></g></svg>

<svg width="63" height="48" viewBox="0 0 63 48" fill="none" xmlns="http://www.w3.org/2000/svg">
<g clip-path="url(#clip0)">
<path d="M55.3556 46.0004H22.0048C18.4156 46.0004 16.2 42.0835 18.0489 39.0073L34.8315 11.0857C36.6308 8.0922 40.9743 8.10449 42.7565 11.1081L59.3248 39.0297C61.1504 42.1063 58.9331 46.0004 55.3556 46.0004Z" fill="#FFFFFF"/>
<path d="M46.0883 46H8.1967C4.59945 46 2.38498 42.0672 4.25029 38.9914L23.3178 7.54943C25.1206 4.57673 29.4383 4.58899 31.2242 7.57188L50.0482 39.0138C51.89 42.0902 49.6738 46 46.0883 46Z" fill="#F56F46"/>
<path fill-rule="evenodd" clip-rule="evenodd" d="M22.0053 45.9997H46.0884C49.6739 45.9997 51.8901 42.0898 50.0483 39.0135L34.0784 12.3389L18.0495 39.0066C16.2005 42.0828 18.4162 45.9997 22.0053 45.9997Z" fill="#172153"/>
<rect width="15.4682" height="4.13549" rx="2.06775" transform="matrix(1.31134e-07 -1 -1 -1.31134e-07 28.3662 32.6211)" fill="white"/>
<rect width="4.15592" height="4.13549" rx="2.06775" transform="matrix(1.31134e-07 -1 -1 -1.31134e-07 28.3662 38.8672)" fill="white"/>
</g>
<defs>
<clipPath id="clip0">
<rect width="63" height="48" fill="white"/>
</clipPath>
</defs>
</svg>
